icons/qiskit.svg

<!--
  - The MIT License (MIT)
  -
  - Copyright (c) 2015-2024 Elior "Mallowigi" Boukhobza
  -
  - Permission is hereby granted, free of charge, to any person obtaining a copy
  - of this software and associated documentation files (the "Software"), to deal
  - in the Software without restriction, including without limitation the rights
  - to use, copy, modify, merge, publish, distribute, sublicense, and/or sell
  - copies of the Software, and to permit persons to whom the Software is
  - furnished to do so, subject to the following conditions:
  -
  - The above copyright notice and this permission notice shall be included in all
  - copies or substantial portions of the Software.
  -
  - THE SOFTWARE IS PROVIDED "AS IS", WITHOUT WARRANTY OF ANY KIND, EXPRESS OR
  - IMPLIED, INCLUDING BUT NOT LIMITED TO THE WARRANTIES OF MERCHANTABILITY,
  - FITNESS FOR A PARTICULAR PURPOSE AND NONINFRINGEMENT. IN NO EVENT SHALL THE
  - AUTHORS OR COPYRIGHT HOLDERS BE LIABLE FOR ANY CLAIM, DAMAGES OR OTHER
  - LIABILITY, WHETHER IN AN ACTION OF CONTRACT, TORT OR OTHERWISE, ARISING FROM,
  - OUT OF OR IN CONNECTION WITH THE SOFTWARE OR THE USE OR OTHER DEALINGS IN THE
  - SOFTWARE.
  -
  -->

<svg xmlns="http://www.w3.org/2000/svg" version="1.1" viewBox="0 0 512 512" width="16px" height="16px">
  <path fill="#be96ff" data-iconColor="Qiskit"
        d="M127.711113,477.5468445c-170.2814331-98.1691284-170.2814941-344.92453-0.000061-443.093689S512,59.6616783,512,256S297.9925537,575.7160034,127.711113,477.5468445z M339.286377,324.0565186c-7.2199097,0.7207031-14.5706787,1.3459473-22.0299988,1.8761902l46.4170227,69.8633118c13.9685364-6.1626282,29.9348755,0.8331909,34.4324951,16.1270752C512.796936,382.1925354,475.7737427,342.0065918,339.286377,324.0565186z M175.9065247,90.3921967c-0.618866,5.1861496-2.8244324,9.8734894-6.1148834,13.588295l53.5169525,80.5495224c38.5376282-1.3701172,77.4951172-0.3894806,115.8780212,3.4244385C609.2618408,148.5186005,396.1884766,64.7682495,175.9065247,90.3921967z M176.2443542,313.9110718c37.0950775-4.1334839,76.3495636-5.4930115,117.9580994-3.8194275L222.28479,201.846817c-15.9496002-0.7598724-31.4446564-2.0162506-46.2448273-3.7384644C-12.4325752,220.2633057-53.8815269,284.6182556,176.2443542,313.9110718z M339.241333,198.4378204c-33.0716858,3.8690948-67.9025879,4.9631805-104.0965881,3.9070892l72.0603638,108.4594727c10.8727722,0.6953735,21.4930725,1.6260376,31.7876587,2.777771C540.7038574,289.1694641,548.5177612,224.425415,339.241333,198.4378204z M501.3310547,245.5990448c-1.4949036-35.8885345-10.7270813-69.8060455-26.0789185-100.1290588c-6.8220825,22.3664703-46.5194092,37.6604767-97.8617554,47.3955383C434.1045837,202.7072296,487.6521606,217.5538025,501.3310547,245.5990448z M176.0861511,187.6146545c11.2695007-1.0738068,22.840683-1.919754,34.6391602-2.528595l-49.3707733-74.8745956c-13.581955,5.7888794-26.8599091-0.2299728-32.856842-11.9869385C5.6351624,126.7511978,38.7048645,169.8673859,176.0861511,187.6146545z M137.8358307,192.312973c-53.5004654-10.5790863-98.9595261-28.0817566-95.827713-56.721405C23.53965,168.3018341,12.3595543,205.6461029,10.6756372,245.4172821C24.5529385,218.2550812,75.409317,202.3009949,137.8358307,192.312973z M137.9687042,319.7120361c-63.9003067-9.6508789-115.8787384-27.3412476-127.2924271-53.2418823c1.6860666,39.7563477,12.8603506,77.0982361,31.3177567,109.8147278C38.5653267,346.7507629,87.3094177,329.8205566,137.9687042,319.7120361z M349.0562134,420.849762c-0.4547729-6.6682739,1.2922058-13.1361389,6.2117004-18.84729l-50.0316772-75.3037415c-42.1174316,2.6435852-85.2906952,1.4212646-129.1486511-2.3080444C-70.8298035,358.6577148,89.3559265,447.6807861,349.0562134,420.849762z M475.2386169,366.4537354c15.322052-30.2692566,24.5523071-64.1137695,26.0822449-99.9161682c-10.5081177,24.8981323-62.4708252,42.7970276-123.9390869,52.6504822C425.6946716,328.0485535,468.1324463,343.5592957,475.2386169,366.4537354z M309.2871704,30.2634563c-12.3303833-14.8288822-92.0710907-15.9333239-106.5742798,0C214.0998535,45.542057,298.7973633,45.402523,309.2871704,30.2634563z M452.5351257,108.9234085C416.789978,61.2951431,364.148407,27.0423565,303.5973816,15.0915604c32.5503235,12.3963528,15.8271484,37.0867844-47.6625824,37.0867844c-60.5796509,0.1801758-81.377594-23.8108101-47.4976959-37.1174393C144.3219757,27.6734085,89.1000824,65.3066101,53.3879776,117.3460999c15.6439133-13.1066895,41.0959854-22.173233,72.6576462-29.2574081c-0.7595367-28.2443352,39.1473541-36.4768791,48.9405212-8.0976868C285.6811218,67.8675919,393.6558838,78.6197739,452.5351257,108.9234085z M202.7128906,481.7365417c8.3175964,14.2437744,92.145874,16.4526672,106.5742798,0C304.51828,469.0295715,220.1204376,464.1011658,202.7128906,481.7365417z M255.9347992,459.8216553c58.2597809-0.3835144,82.2893524,22.4978943,48.06633,37.0039673c60.2702026-12.013916,112.6719666-46.1558838,148.3338928-93.5714722c-15.4267578,8.2764893-33.3141785,14.6818542-53.6335144,19.2380371c-3.425354,22.6056824-33.759613,29.7755737-46.519104,8.4037476c-122.8388367,14.7520142-253.2819366,0.441803-298.7278748-36.2344055c35.7078857,52.0114136,90.8879013,89.6410217,154.9493713,102.2660217C173.9768829,483.671936,196.0735779,458.8451538,255.9347992,459.8216553z"/>
</svg>

<svg xmlns="http://www.w3.org/2000/svg" viewBox="0 0 512 512"><path fill="#be96ff" d="M127.711 477.547c-170.281-98.17-170.281-344.925 0-443.094S512 59.662 512 256 297.993 575.716 127.711 477.547m211.575-153.49a781 781 0 0 1-22.03 1.876l46.417 69.863c13.969-6.163 29.935.833 34.433 16.127 114.69-29.73 77.668-69.916-58.82-87.866M175.906 90.392a24.9 24.9 0 0 1-6.114 13.588l53.517 80.55c38.537-1.37 77.495-.39 115.878 3.424 270.075-39.435 57.001-123.186-163.28-97.562m.338 223.52c37.095-4.134 76.35-5.494 117.958-3.82l-71.917-108.245c-15.95-.76-31.445-2.016-46.245-3.739-188.473 22.155-229.922 86.51.204 115.803m162.997-115.474c-33.071 3.869-67.902 4.963-104.096 3.907l72.06 108.46a672 672 0 0 1 31.788 2.777c201.71-24.413 209.525-89.157.248-115.144m162.09 47.161c-1.495-35.888-10.727-69.806-26.079-100.129-6.822 22.366-46.52 37.66-97.862 47.396 56.715 9.841 110.262 24.688 123.941 52.733m-325.245-57.984a801 801 0 0 1 34.64-2.529l-49.371-74.875c-13.582 5.79-26.86-.23-32.857-11.986-122.863 28.526-89.793 71.642 47.588 89.39m-38.25 4.698c-53.5-10.58-98.96-28.082-95.828-56.721-18.468 32.71-29.648 70.054-31.332 109.825 13.877-27.162 64.733-43.116 127.16-53.104m.133 127.399c-63.9-9.65-115.879-27.341-127.293-53.242 1.686 39.757 12.86 77.098 31.318 109.815-3.429-29.534 45.315-46.464 95.975-56.573M349.056 420.85c-.455-6.669 1.292-13.136 6.212-18.848L305.236 326.7c-42.117 2.643-85.29 1.421-129.148-2.308-246.918 34.267-86.732 123.29 172.968 96.459m126.183-54.396c15.322-30.27 24.552-64.114 26.082-99.916-10.508 24.898-62.471 42.797-123.94 52.65 48.314 8.86 90.751 24.371 97.858 47.266M309.287 30.264c-12.33-14.83-92.07-15.934-106.574 0 11.387 15.278 96.084 15.139 106.574 0m143.248 78.66c-35.745-47.629-88.387-81.882-148.938-93.832 32.55 12.396 15.828 37.086-47.662 37.086-60.58.18-81.378-23.81-47.498-37.117C144.322 27.673 89.1 65.307 53.388 117.346c15.644-13.107 41.096-22.173 72.658-29.257-.76-28.245 39.147-36.477 48.94-8.098 110.695-12.123 218.67-1.371 277.55 28.932M202.713 481.736c8.317 14.243 92.146 16.452 106.574 0-4.769-12.707-89.167-17.636-106.574 0m53.222-21.915c58.26-.384 82.29 22.498 48.066 37.004 60.27-12.014 112.672-46.156 148.334-93.572-15.427 8.277-33.314 14.682-53.633 19.238-3.426 22.606-33.76 29.776-46.52 8.404-122.838 14.752-253.282.442-298.727-36.234 35.707 52.01 90.887 89.64 154.949 102.266-34.427-13.256-12.33-38.083 47.53-37.106" data-iconColor="Qiskit"/></svg>
